v2/src/assets/icones/icon__light.svg

<svg width="33" height="47" viewBox="0 0 33 47" fill="none" xmlns="http://www.w3.org/2000/svg">
<path d="M9.00562 41.7071C9.00656 42.2845 9.18094 42.85 9.50813 43.331L11.1103 45.6892C11.384 46.0923 11.7552 46.4229 12.191 46.6516C12.6267 46.8803 13.1134 47 13.6078 47H19.3931C19.8875 47 20.3742 46.8803 20.81 46.6516C21.2457 46.4229 21.6169 46.0923 21.8906 45.6892L23.4928 43.331C23.8199 42.8499 23.9947 42.285 23.9953 41.7071L23.9991 38.1868H9.00094L9.00562 41.7071ZM0 16.156C0 20.2289 1.54219 23.9448 4.08375 26.784C5.6325 28.5143 8.055 32.1292 8.97844 35.1786C8.98219 35.2025 8.985 35.2264 8.98875 35.2503H24.0112C24.015 35.2264 24.0178 35.2034 24.0216 35.1786C24.945 32.1292 27.3675 28.5143 28.9163 26.784C31.4578 23.9448 33 20.2289 33 16.156C33 7.21608 25.5853 -0.0274602 16.4484 7.82623e-05C6.885 0.0285347 0 7.6163 0 16.156ZM16.5 8.81239C12.3647 8.81239 9 12.1069 9 16.156C9 16.9675 8.32875 17.6247 7.5 17.6247C6.67125 17.6247 6 16.9675 6 16.156C6 10.4867 10.71 5.87495 16.5 5.87495C17.3288 5.87495 18 6.53221 18 7.34367C18 8.15514 17.3288 8.81239 16.5 8.81239Z" fill="black"/>
</svg>

<?xml version="1.0" encoding="utf-8"?>
<!-- Generator: Adobe Illustrator 26.3.1, SVG Export Plug-In . SVG Version: 6.00 Build 0)  -->
<svg version="1.1" id="Camada_1" xmlns="http://www.w3.org/2000/svg" xmlns:xlink="http://www.w3.org/1999/xlink" x="0px" y="0px"
	 viewBox="0 0 33 47" style="enable-background:new 0 0 33 47;" xml:space="preserve">
<style type="text/css">
	.st0{fill:#391741;}
</style>
<path class="st0" d="M9,41.7c0,0.6,0.2,1.1,0.5,1.6l1.6,2.4c0.3,0.4,0.6,0.7,1.1,1c0.4,0.2,0.9,0.3,1.4,0.3h5.8c0.5,0,1-0.1,1.4-0.3
	c0.4-0.2,0.8-0.6,1.1-1l1.6-2.4c0.3-0.5,0.5-1,0.5-1.6l0-3.5H9L9,41.7z M0,16.2c0,4.1,1.5,7.8,4.1,10.6c1.5,1.7,4,5.3,4.9,8.4
	c0,0,0,0,0,0.1h15c0,0,0,0,0-0.1c0.9-3,3.3-6.7,4.9-8.4c2.5-2.8,4.1-6.6,4.1-10.6C33,7.2,25.6,0,16.4,0C6.9,0,0,7.6,0,16.2z
	 M16.5,8.8c-4.1,0-7.5,3.3-7.5,7.3c0,0.8-0.7,1.5-1.5,1.5S6,17,6,16.2c0-5.7,4.7-10.3,10.5-10.3c0.8,0,1.5,0.7,1.5,1.5
	C18,8.2,17.3,8.8,16.5,8.8z"/>
</svg>
